X:1
T:Den Længtende
T:Den Længtende
T:H. Kjerulf, harmoniseret af Joh. D. Behrens
T:Kong Carl XV
C:H. Kjerulf, harmoniseret af Joh. D. Behrens
%%score [ 1 2 3 4 ]
L:1/8
Q:1/4=80
M:3/4
K:C
V:1 treble-8 nm="T1"
V:2 treble-8 nm="T2"
V:3 bass nm="B1"
V:4 bass nm="B2"
V:1
!p!!<(! E2!<)! |!>(! e3!>)! d c B | A3/2 B/!<(! c d e!<)! a | e3!>(! d c!>)! d | %4
w: 1. Paa|En- gen ved jeg|Far og Mor nu er, og|Bror min gaar i|
w: 2. Alt|tin- drer Stjer- ner-|ne saa mildt og klart, og|Tors- dags- kvel- den|
!<(! e2!<)!!>(! e3!>)! f | e3/2 d/ !>!c3 B | A3/2 B/!<(! c d!<)! e a | e3!>(! d c!>)! d | %8
w: He- jen; jeg|sid- der en- som|jeg i Stu- en her og|stir- rer ud paa|
w: svin- der. Nu|har jeg Far og|Mor vel hjem- me snart, og|Bror min frem nok|
!<(! e2!<)!!>(! e3!>)!!mf!!<(! e!<)! |!>(! g3/2!>)! d/ d e f g | e3/2 d/ c2 g2 | %11
w: Ve- jen. Han|sag- de til mig, da vi|skil- tes sidst og|
w: vin- der. Men|han, som skul- de kom- me|hid før dem, Gud|
!<(! f3/2!<)! e/!>(! d3!>)! c | (B>A) G3!p! G | c3/2 c/ c d c B |!<(! A3/2 B/!<)! c2!mf! d2 | %15
w: Haan- den gav hin-|an- * den: «Ja,|Tors- dags- kvel- den kom- mer|jeg nu vist til|
w: ved, hvor han nu|van- * ker – kan|hen- de li- ge langt i-|fra mit Hjem som|
!<(! e3/2!<)! a/!f! g3 e |1 d2 !fermata!c2 :|2 d2 !fermata!c2!pp! B2 || %18
w: Hjem- met dit ved|Stran- den.»||
w: jeg med mi- ne||Tan- ker! som|
 A3"^poco ritardando e morendo"!<(! B c!<)! d |!>(! e6!>)! | !fermata!e4 |] %21
w: |||
w: jeg med mi- ne|Tan-|ker!|
V:2
!p!!<(! E2!<)! |!>(! c3!>)! B A ^G | A3/2 ^G/!<(! A B c!<)! c | c3!>(! B A!>)! A | %4
w: Paa|En- gen ved jeg|Far og Mor nu er, og|Bror min gaar i|
w: Alt|tin- drer Stjer- ner-|ne saa mildt og klart, og|Tors- dags- kvel- den|
!<(! B2!<)!!>(! B3!>)! B | c3/2 ^G/ !>!A3 G | A3/2 ^G/!<(! A B!<)! c B | c3!>(! B A!>)! B | %8
w: He- jen; jeg|sid- der en- som|jeg i Stu- en her og|stir- rer ud paa|
w: svin- der. Nu|har jeg Far og|Mor vel hjem- me snart, og|Bror min frem nok|
!<(! c2!<)!!>(! c3!>)!!mf!!<(! c!<)! |!>(! B3/2!>)! B/ B c d B | c3/2 G/ G2 c2 | %11
w: Ve- jen. Han|sag- de til mig, da vi|skil- tes sidst og|
w: vin- der. Men|han, som skul- de kom- me|hid før dem, Gud|
!<(! d3/2!<)! c/!>(! B3!>)! A | (G>^F) G3!p! G | G3/2 G/ G G G ^G |!<(! A3/2 ^G/!<)! A2!mf! B2 | %15
w: Haan- den gav hin-|an- * den: «Ja,|Tors- dags- kvel- den kom- mer|jeg nu vist til|
w: ved, hvor han nu|van- * ker – kan|hen- de li- ge langt i-|fra mit Hjem som|
!<(! c3/2!<)! B/!f! c3 c |1 B2 !fermata!G2 :|2 B2 !fermata!A2!pp! ^G2 || A3!<(! ^G A!<)! B | %19
w: Hjem- met dit ved|Stran- den.»|||
w: jeg med mi- ne||Tan- ker! som|jeg med mi- ne|
!>(! (c2 d2 c2)!>)! | !fermata!B4 |] %21
w: ||
w: Tan- * *|ker!|
V:3
!p!!<(! E,2!<)! |!>(! A,3!>)! F, E, E, | E,3/2 E,/!<(! E, G, G,!<)! A, | G,3!>(! F, E,!>)! A, | %4
w: Paa|En- gen ved jeg|Far og Mor nu er, og|Bror min gaar i|
w: Alt|tin- drer Stjer- ner-|ne saa mildt og klart, og|Tors- dags- kvel- den|
!<(! A,2!<)!!>(! ^G,3!>)! G, | A,3/2 F,/ !>!E,3 E, | E,3/2 E,/!<(! A, A,!<)! A, F, | %7
w: He- jen; jeg|sid- der en- som|jeg i Stu- en her og|
w: svin- der. Nu|har jeg Far og|Mor vel hjem- me snart, og|
 A,2 ^G,2 A, F, |!<(! =G,2!<)!!>(! G,3!>)!!mf!!<(! G,!<)! |!>(! G,3/2!>)! G,/ G, G, G, G, | %10
w: stir- rer ud paa|Ve- jen. Han|sag- de til mig, da vi|
w: Bror min frem nok|vin- der. Men|han, som skul- de kom- me|
 G,3/2 F,/ E,2 G,2 |!<(! G,3/2!<)! G,/!>(! G,2!>)! !>!^F,2 | (G,>D,) B,,3!p! G, | %13
w: skil- tes sidst og|Haan- den gav hin-|an- * den: «Ja,|
w: hid før dem, Gud|ved, hvor han nu|van- * ker – kan|
 E,3/2 F,/ G, G, G, F, |!<(! E,3/2 E,/!<)! E,2!mf! F,2 |!<(! E,3/2!<)! F,/!f! G,3 G, |1 %16
w: Tors- dags- kvel- den kom- mer|jeg nu vist til|Hjem- met dit ved|
w: hen- de li- ge langt i-|fra mit Hjem som|jeg med mi- ne|
 F,2 !fermata!E,2 :|2 (G,F,) !fermata!E,2!pp! F,2 || E,3!<(! E, A,!<)! G, |!>(! (G,2 ^G,2 A,2!>)! | %20
w: Stran- den.»||||
w: |Tan- * ker! som|jeg med mi- ne|Tan- * *|
 A,2) !fermata!^G,2 |] %21
w: |
w: * ker!|
V:4
!p!!<(! E,2!<)! |!>(! A,,3!>)! A,, A,, B,, | C,3/2 B,,/!<(! A,, G,, C,!<)! F, | %3
w: Paa|En- gen ved jeg|Far og Mor nu er, og|
w: Alt|tin- drer Stjer- ner-|ne saa mildt og klart, og|
 C,3!>(! G,, A,,!>)! F, |!<(! E,2!<)!!>(! E,3!>)! D, | C,3/2 B,,/ !>!A,,3 D, | %6
w: Bror min gaar i|He- jen; jeg|sid- der en- som|
w: Tors- dags- kvel- den|svin- der. Nu|har jeg Far og|
 C,3/2 E,/!<(! A, F,!<)! E, D, | E,3!>(! E, F,!>)! D, |!<(! C,2!<)!!>(! C,3!>)!!mf!!<(! C,!<)! | %9
w: jeg i Stu- en her og|stir- rer ud paa|Ve- jen. Han|
w: Mor vel hjem- me snart, og|Bror min frem nok|vin- der. Men|
!>(! G,,3/2!>)! G,,/ G,, G,, G,, G,, | C,3/2 C,/ C,2 E,2 |!<(! B,,3/2!<)! C,/!>(! D,3!>)! D, | %12
w: sag- de til mig, da vi|skil- tes sidst og|Haan- den gav hin-|
w: han, som skul- de kom- me|hid før dem, Gud|ved, hvor han nu|
 G,,2 G,,3!p! G, | C,3/2 D,/ E, F, E, D, |!<(! C,3/2 B,,/!<)! A,,2!mf! G,,2 | %15
w: an- den: «Ja,|Tors- dags- kvel- den kom- mer|jeg nu vist til|
w: van- ker – kan|hen- de li- ge langt i-|fra mit Hjem som|
!<(! C,3/2!<)! D,/!f! E,3 C, |1 G,,2 !fermata!C,2 :|2 (G,,^G,,) !fermata!A,,2!pp! D,2 || %18
w: Hjem- met dit ved|Stran- den.»||
w: jeg med mi- ne||Tan- * ker! som|
 C,3!<(! E, A,!<)! G, |!>(! (C,2 B,,2 A,,2)!>)! | !fermata!E,4 |] %21
w: |||
w: jeg med mi- ne|Tan- * *|ker!|

